!!!!SEGMENT: pl-cz--ii-188--009_orllowski-michall--missa-ex-g-et-incarnatus.krn
!!!cenid: 17xx:1013
!!!COM: Orłowski, Michał
!!!COM-rismID: pe30020336
!!!CDT: ~1700-~1799
!!!CNT:
!!!OPR: Missa ex G
!!!OTL: Et incarnatus
!!!OMV: 009
!!!PDT:
!!!AGN: Sacred; Mass
!!!SMS-siglum: PL-CZ
!!!SMS-shelfmark: II-188
!!!SMS-shelfwork: 001-009 M
!!!SMS-variant:
!!!SMS-altvar:
!!!NIFC-rismSourceID: 300000944
!!!NIFC-rismChildID: 300000944
!!!NIFC-islandoraID: pl-cz:32769
!!!URL-pdf-islandora: https://repozytorium.nifc.pl/islandora/object/pl-cz%3A32769/datastream/PDF/view
!!!URL-scan:
!!!ONB-nifc: UWAGA: części Mszy: Kyrie, Gloria, Laudamus, Domine deus, Qui tollis, Quoniam, Cum santo, Patrem, Et incarnatus, Et resurrexit, Sanctus, Benedictus, Agnus dei. UWAGA: w niektórych głosach części zapisane w innej kolejności
!!!AIN: 1 bass 2 cor 1 organ 2 soprn 2 violn
!!!key: G
**kern	**dynam	**kern	**dynam	**kern	**dynam	**kern	**kern	**text	**kern	**text	**kern	**kern
*part8	*part8	*part7	*part7	*part6	*part6	*part5	*part4	*part4	*part3	*part3	*part2	*part1
*staff8	*	*staff7	*	*staff6	*	*staff5	*staff4	*staff4	*staff3	*staff3	*staff2	*staff1
*	*	*	*	*	*	*group1	*group1	*	*group1	*	*	*
*I"Fundamento.	*	*I"Violino Secundo.	*	*I"Violino Primo.	*	*I"Baſso.	*I"Canto 2do:	*	*I"Canto 1mo:	*	*I"Cornu 2do. in G.	*I"Cornu 1mo. in G.
*I'org	*	*I'vl 2	*	*I'vl 1	*	*I'B	*I'S 2	*	*I'S 1	*	*I'cor 2 in G	*I'cor 1 in G
*Iorgan	*	*Ivioln	*	*Ivioln	*	*Ibass	*Isoprn	*	*Isoprn	*	*Icor	*Icor
*ICklav	*	*ICstr	*	*ICstr	*	*ICvox	*ICvox	*	*ICvox	*	*ICbras	*ICbras
*clefF4	*	*clefG2	*	*clefG2	*	*clefF4	*clefC1	*	*clefC1	*	*clefG2	*clefG2
*	*	*	*	*	*	*	*	*	*	*	*ITrd3c5	*ITrd3c5
*k[f#]	*	*k[f#]	*	*k[f#]	*	*k[f#]	*k[f#]	*	*k[f#]	*	*k[f#]	*k[f#]
*G:	*	*G:	*	*G:	*	*G:	*G:	*	*G:	*	*G:	*G:
*M3/4	*	*M3/4	*	*M3/4	*	*M3/4	*M3/4	*	*M3/4	*	*M3/4	*M3/4
*all\right	*	*all\right	*	*all\right	*	*	*all\right	*	*all\right	*	*	*
=1	=1	=1	=1	=1	=1	=1	=1	=1	=1	=1	=1	=1
*^	*	*	*	*^	*	*	*	*	*	*	*	*
*2\right	*	*	*	*	*2\right	*	*	*	*	*	*	*	*	*
!LO:TX:a:t=Andante.	!LO:N:vis=2	!	!LO:TX:a:B:t=Andante.	!	!LO:TX:a:B:t=Andate	!	!	!LO:TX:a:t=Et in Carnatus Tacett.	!LO:TX:a:B:t=Andante.	!	!LO:TX:a:B:t=Andante.	!	!LO:TX:a:t=Et in Carnatus Tacet	!LO:TX:a:t=Et in Carnatus Tacet
4G/	[>2.GG\	.	(8.G/L	.	8g/L	2.G\	.	2.ryy	0.r	.	0.r	.	2.ryy	2.ryy
.	.	.	.	.	8a/J	.	.	.	.	.	.	.	.	.
.	.	.	16A/Jk)	.	.	.	.	.	.	.	.	.	.	.
4r	.	.	4B/	.	4b/	.	.	.	.	.	.	.	.	.
4r	.	.	4c/	.	4cc/	.	.	.	.	.	.	.	.	.
=2	=2	=2	=2	=2	=2	=2	=2	=2	=2	=2	=2	=2	=2	=2
*	*	*	*^	*	*	*	*	*	*	*	*	*	*	*
!	!LO:N:vis=2	!	!LO:S:s=1:note:problem=note-level slur	!LO:N:vis=2	!	!LO:S:s=1:note:problem=note-level slur	!	!	!	!	!	!	!	!	!
4G/	2.GG\_	.	(<8.d/L	2.G/	.	(<8.dd/L	2.d\	.	2.ryy	.	.	.	.	2.ryy	2.ryy
.	.	.	16e/Jk)	.	.	16ee/Jk)	.	.	.	.	.	.	.	.	.
4r	.	.	(8.d/L	.	.	(<8.dd/L	.	.	.	.	.	.	.	.	.
.	.	.	16e/Jk)	.	.	16ee/Jk)	.	.	.	.	.	.	.	.	.
4r	.	.	4d/	.	.	4dd/	.	.	.	.	.	.	.	.	.
=3	=3	=3	=3	=3	=3	=3	=3	=3	=3	=3	=3	=3	=3	=3	=3
!	!LO:N:vis=2	!	!LO:S:s=1:note:problem=note-level slur	!LO:N:vis=2	!	!LO:S:s=1:note:problem=note-level slur	!	!	!	!	!	!	!	!	!
4G/	2.GG\]	.	(<8.d/L	2.G/	.	(<8.dd/L	2.d\	.	2.ryy	.	.	.	.	2.ryy	2.ryy
.	.	.	16e/Jk)	.	.	16ee/Jk)	.	.	.	.	.	.	.	.	.
4r	.	.	4fn/	.	.	4ffn/	.	.	.	.	.	.	.	.	.
4r	.	.	(8f/L	.	.	(8ff/L	.	.	.	.	.	.	.	.	.
.	.	.	8e/J)	.	.	8ee/J)	.	.	.	.	.	.	.	.	.
*	*	*	*v	*v	*	*	*	*	*	*	*	*	*	*	*
=4	=4	=4	=4	=4	=4	=4	=4	=4	=4	=4	=4	=4	=4	=4
!	!LO:N:vis=2	!	!	!	!	!	!	!	!	!	!	!	!	!
4G/	2.GG\	.	2.d 2.G/	.	2.dd/	2.d\	.	2.ryy	.	.	.	.	2.ryy	2.ryy
4r	.	.	.	.	.	.	.	.	.	.	.	.	.	.
4r	.	.	.	.	.	.	.	.	.	.	.	.	.	.
*v	*v	*	*	*	*	*	*	*	*	*	*	*	*	*
=5	=5	=5	=5	=5	=5	=5	=5	=5	=5	=5	=5	=5	=5
!	!	!	!	!LO:S:s=1:note:problem=note-level slur	!	!	!	!	!	!	!	!	!
2.D\	.	(8d/L	.	(<8dd/L	2.d\	.	2.ryy	0.r	.	0.r	.	2.ryy	2.ryy
.	.	8c/	.	8cc/	.	.	.	.	.	.	.	.	.
.	.	8B/	.	8b/	.	.	.	.	.	.	.	.	.
.	.	8c/J)	.	8cc/	.	.	.	.	.	.	.	.	.
.	.	4A/	.	8a/	.	.	.	.	.	.	.	.	.
.	.	.	.	8f#/J)	.	.	.	.	.	.	.	.	.
=6	=6	=6	=6	=6	=6	=6	=6	=6	=6	=6	=6	=6	=6
2.GG/	.	4G/	.	4g/	4G\	.	2.ryy	.	.	.	.	2.ryy	2.ryy
.	.	4B/	.	4b/	2d\	.	.	.	.	.	.	.	.
.	.	4d/	.	4dd/	.	.	.	.	.	.	.	.	.
!	!	!LO:LB:g=original	!	!LO:LB:g=original	!	!	!	!	!	!	!	!	!
=7	=7	=7	=7	=7	=7	=7	=7	=7	=7	=7	=7	=7	=7
!	!	!	!	!LO:S:s=1:note:problem=note-level slur	!	!	!	!	!	!	!	!	!
2.D\	.	(8d/L	.	(<8dd/L	2.d\	.	2.ryy	.	.	.	.	2.ryy	2.ryy
.	.	8c/	.	8cc/	.	.	.	.	.	.	.	.	.
.	.	8B/	.	8b/	.	.	.	.	.	.	.	.	.
.	.	8c/J)	.	8cc/	.	.	.	.	.	.	.	.	.
.	.	4A/	.	8a/	.	.	.	.	.	.	.	.	.
.	.	.	.	8f#/J)	.	.	.	.	.	.	.	.	.
=8	=8	=8	=8	=8	=8	=8	=8	=8	=8	=8	=8	=8	=8
2.GG/	.	2.d 2.G/	.	2.g/	2.G\	.	2.ryy	.	.	.	.	2.ryy	2.ryy
=9	=9	=9	=9	=9	=9	=9	=9	=9	=9	=9	=9	=9	=9
!	!	!	!	!LO:S:s=1:note:problem=note-level slur	!	!	!	!	!	!	!	!	!
2.D/	.	8d/L	.	(<8dd/L	2.d\	.	2.ryy	0.r	.	0.r	.	2.ryy	2.ryy
.	.	8c/	.	8cc/	.	.	.	.	.	.	.	.	.
.	.	8B/	.	8b/	.	.	.	.	.	.	.	.	.
.	.	8c/J	.	8cc/	.	.	.	.	.	.	.	.	.
.	.	4A/	.	8a/	.	.	.	.	.	.	.	.	.
.	.	.	.	8f#/J)	.	.	.	.	.	.	.	.	.
!LO:LB:g=original	!	!	!	!	!	!	!	!	!	!	!	!	!
=10	=10	=10	=10	=10	=10	=10	=10	=10	=10	=10	=10	=10	=10
2.GG/	.	4G/	.	4g/	4G\	.	2.ryy	.	.	.	.	2.ryy	2.ryy
.	.	4B/	.	4b 4d/	4reyy	.	.	.	.	.	.	.	.
.	.	4d/	.	4dd 4d/	4reyy	.	.	.	.	.	.	.	.
=11	=11	=11	=11	=11	=11	=11	=11	=11	=11	=11	=11	=11	=11
!	!	!	!	!LO:S:s=1:note:problem=note-level slur	!	!	!	!	!	!	!	!	!
2.D/	.	8d/L	.	(<8dd/L	2.d\	.	2.ryy	.	.	.	.	2.ryy	2.ryy
.	.	8c/	.	8cc/	.	.	.	.	.	.	.	.	.
.	.	8B/	.	8b/	.	.	.	.	.	.	.	.	.
.	.	8c/J	.	8cc/	.	.	.	.	.	.	.	.	.
.	.	4A/	.	8a/	.	.	.	.	.	.	.	.	.
.	.	.	.	8f#/J)	.	.	.	.	.	.	.	.	.
=12	=12	=12	=12	=12	=12	=12	=12	=12	=12	=12	=12	=12	=12
2.GG/	.	2.d 2.G/	.	2.g/	2.G\	.	2.ryy	.	.	.	.	2.ryy	2.ryy
*	*	*	*	*v	*v	*	*	*	*	*	*	*	*
=13	=13	=13	=13	=13	=13	=13	=13	=13	=13	=13	=13	=13
*^	*	*	*	*	*	*	*	*	*	*	*	*
!LO:TX:a:i:t=Solo	!LO:N:vis=2	!LO:DY:t=p&colon;	!LO:TX:a:i:t=Solo	!LO:DY:rj	!LO:TX:a:i:t=Solo	!LO:DY:t=pia	!	!LO:TX:a:i:t=Solo.	!	!	!	!	!
4G/	[2.GG\	p	8G/L	p	(8g/L	p	2.ryy	8B/L	Et	8g\L	Et	2.ryy	2.ryy
.	.	.	8A/J	.	8a/J)	.	.	8f#/J	.	8a\J	.	.	.
4r	.	.	4B/	.	4b/	.	.	4g\	in	4b\	in	.	.
4r	.	.	4c/	.	4b/	.	.	4a\	Car-	4cc\	Car-	.	.
=14	=14	=14	=14	=14	=14	=14	=14	=14	=14	=14	=14	=14	=14
*	*	*	*^	*	*^	*	*	*	*	*	*	*	*
!	!LO:N:vis=2	!	!LO:S:s=1:note:problem=note-level slur	!LO:N:vis=2	!	!LO:S:s=1:note:problem=note-level slur	!	!	!	!	!	!	!	!	!
4G/	2.GG\_	.	(<8.d/L	2.G/	.	(<8.dd/L	2.d\	.	2.ryy	8.b\L	-na-	8.dd\L	-na-	2.ryy	2.ryy
.	.	.	16e/Jk)	.	.	16ee/Jk)	.	.	.	16cc\Jk	.	16ee\Jk	.	.	.
4r	.	.	(8.d/L	.	.	(<8.dd/L	.	.	.	8.b\L	-tus	8.dd\L	-tus	.	.
.	.	.	16e/Jk)	.	.	16ee/Jk)	.	.	.	16cc\Jk	.	16ee\Jk	.	.	.
4r	.	.	4d/	.	.	4dd/	.	.	.	4b\	Eſt	4dd\	est	.	.
=15	=15	=15	=15	=15	=15	=15	=15	=15	=15	=15	=15	=15	=15	=15	=15
!	!LO:N:vis=2	!	!	!LO:N:vis=2	!	!LO:S:s=1:note:problem=note-level slur	!	!	!	!	!	!	!	!	!
4G/	2.GG\_	.	8.d/L	2.G/	.	(<8.dd/L	2.d\	.	2.ryy	8b\L	.	8.dd\L	De	2.ryy	2.ryy
.	.	.	.	.	.	.	.	.	.	8cc\J	.	.	.	.	.
.	.	.	16e/Jk	.	.	16ee/Jk)	.	.	.	.	.	16ee\Jk	.	.	.
4r	.	.	4fn/	.	.	4ffn/	.	.	.	4dd\	Spi-	4ffn\	Spi-	.	.
4r	.	.	8f/L	.	.	(<8ff/L	.	.	.	8dd\	-ri-	8ff\	-ri-	.	.
.	.	.	8e/J	.	.	8ee/J)	.	.	.	8cc\	-tu	8ee\	-tu	.	.
*	*	*	*v	*v	*	*	*	*	*	*	*	*	*	*	*
!	!	!	!LO:LB:g=original	!	!LO:LB:g=original	!	!	!	!	!	!	!	!	!
=16	=16	=16	=16	=16	=16	=16	=16	=16	=16	=16	=16	=16	=16	=16
*	*	*	*	*	*	*	*	*	*2\right	*	*2\right	*	*	*
!	!LO:N:vis=2	!	!	!	!	!	!	!	!	!	!	!	!	!
4G/	2.GG\]	.	2.d 2.G/	.	2.dd/	2.d\	.	2.ryy	2b\	San-	2dd\	San-	2.ryy	2.ryy
4r	.	.	.	.	.	.	.	.	.	.	.	.	.	.
4r	.	.	.	.	.	.	.	.	4b\	-cto	4dd\	-cto	.	.
*v	*v	*	*	*	*	*	*	*	*	*	*	*	*	*
=17	=17	=17	=17	=17	=17	=17	=17	=17	=17	=17	=17	=17	=17
!	!	!	!	!LO:S:s=1:note:problem=note-level slur	!	!	!	!	!	!	!	!	!
2.D/	.	8d/L	.	(<8dd/L	2.d\	.	2.ryy	8b\L	Spi-	8dd\L	Spi-	2.ryy	2.ryy
.	.	8c/	.	8cc/	.	.	.	8a\	.	8cc\	.	.	.
.	.	8B/	.	8b/	.	.	.	8g\	.	8b\	.	.	.
.	.	8c/J	.	8cc/	.	.	.	8a\J	.	8cc\J	.	.	.
.	.	4A/	.	8a/	.	.	.	8f#/	-ri-	8a\	-ri-	.	.
.	.	.	.	8f#/J)	.	.	.	8d/	-tu	8f#/	-tu	.	.
=18	=18	=18	=18	=18	=18	=18	=18	=18	=18	=18	=18	=18	=18
2.GG/	.	4G/	.	4g/	4G\	.	2.ryy	4B/	San-	4g\	San-	2.ryy	2.ryy
!	!	!	!	!LO:S:s=1:note:problem=note-level slur	!	!	!	!	!	!	!	!	!
.	.	4B/	.	(<4b/	2d\	.	.	4g\	.	4b\	.	.	.
.	.	4d/	.	4dd/)	.	.	.	4b\	-cto	4dd\	-cto	.	.
!	!	!	!	!	!	!	!	!LO:LB:g=original	!	!LO:LB:g=original	!	!	!
=19	=19	=19	=19	=19	=19	=19	=19	=19	=19	=19	=19	=19	=19
!	!	!	!	!LO:S:s=1:note:problem=note-level slur	!	!	!	!	!	!	!	!	!
2.D/	.	8d/L	.	(<8dd/L	2.d\	.	2.ryy	8b\L	Spi-	8dd\L	Spi-	2.ryy	2.ryy
.	.	8c/	.	8cc/	.	.	.	8a\	.	8cc\	.	.	.
.	.	8B/	.	8b/	.	.	.	8g\	.	8b\	.	.	.
.	.	8c/J	.	8cc/	.	.	.	8a\J	.	8cc\J	.	.	.
.	.	4A/	.	8a/	.	.	.	8f#/	-ri-	8a\	-ri-	.	.
.	.	.	.	8f#/J)	.	.	.	8d/	-tu	8f#/	-tu	.	.
=20	=20	=20	=20	=20	=20	=20	=20	=20	=20	=20	=20	=20	=20
2.GG/	.	2.d 2.G/	.	2.g/	2.G\	.	2.ryy	2B/	San-	2g/	San-	2.ryy	2.ryy
.	.	.	.	.	.	.	.	4B/	-cto	4g/	-cto	.	.
=21	=21	=21	=21	=21	=21	=21	=21	=21	=21	=21	=21	=21	=21
!	!	!	!	!LO:S:s=1:note:problem=note-level slur	!	!	!	!	!	!	!	!	!
2.D/	.	8d/L	.	(<8dd/L	2.d\	.	2.ryy	8b\L	Spi-	8dd\L	Spi-	2.ryy	2.ryy
.	.	8c/	.	8cc/	.	.	.	8a\	.	8cc\	.	.	.
.	.	8B/	.	8b/	.	.	.	8g\	.	8b\	.	.	.
.	.	8c/J	.	8cc/	.	.	.	8a\J	.	8cc\J	.	.	.
.	.	4A/	.	8a/	.	.	.	8f#/	-ri-	8a\	-ri-	.	.
.	.	.	.	8f#/J)	.	.	.	8d/	-tu	8f#/	-tu	.	.
=22	=22	=22	=22	=22	=22	=22	=22	=22	=22	=22	=22	=22	=22
2.GG/	.	4G/	.	4g/	4G\	.	2.ryy	4B/	San-	4g\	San-	2.ryy	2.ryy
!	!	!	!	!LO:S:s=1:note:problem=note-level slur	!	!	!	!	!	!	!	!	!
.	.	4B/	.	(<4b/	2d\	.	.	4g\	.	4b\	.	.	.
.	.	4d/	.	4dd/)	.	.	.	4b\	-cto	4dd\	-cto	.	.
=23	=23	=23	=23	=23	=23	=23	=23	=23	=23	=23	=23	=23	=23
!	!	!	!	!LO:S:s=1:note:problem=note-level slur	!	!	!	!	!	!	!	!	!
2.D/	.	8d/L	.	(<8dd/L	2.d\	.	2.ryy	8b\L	Spi-	8dd\L	Spi-	2.ryy	2.ryy
.	.	8c/	.	8cc/	.	.	.	8a\	.	8cc\	.	.	.
.	.	8B/	.	8b/	.	.	.	8g\	.	8b\	.	.	.
.	.	8c/J	.	8cc/	.	.	.	8a\J	.	8cc\J	.	.	.
.	.	4A/	.	8a/	.	.	.	8f#/	-ri-	8a\	-ri-	.	.
.	.	.	.	8f#/J)	.	.	.	8d/	-tu	8f#/	-tu	.	.
=24	=24	=24	=24	=24	=24	=24	=24	=24	=24	=24	=24	=24	=24
2.GG/	.	2.d 2.G/	.	2.g/	2.G\	.	2.ryy	2B/	San-	2g/	San-	2.ryy	2.ryy
.	.	.	.	.	.	.	.	4B/	-cto	4g/	-cto	.	.
*	*	*	*	*v	*v	*	*	*	*	*	*	*	*
=25	=25	=25	=25	=25	=25	=25	=25	=25	=25	=25	=25	=25
*	*	*^	*	*	*	*	*	*	*	*	*	*
!	!LO:DY:t=for.	!	!	!LO:DY:t=for.	!	!	!	!	!	!LO:TX:a:t=8	!	!	!
8F#\L	f	4a 4f#/	4ryy	f	8ff#L 8a 8d/	.	2.ryy	0.r	.	0.r	.	2.ryy	2.ryy
!	!	!	!	!	!	!LO:DY:t=for.	!	!	!	!	!	!	!
8G\J	.	.	.	.	8gg/J	f	.	.	.	.	.	.	.
4A\	.	4a/	4f#\	.	4aa\	.	.	.	.	.	.	.	.
4A\	.	4a/	4f#\	.	4aa\	.	.	.	.	.	.	.	.
!	!	!LO:LB:g=original	!	!	!LO:LB:g=original	!	!	!	!	!	!	!	!
=26	=26	=26	=26	=26	=26	=26	=26	=26	=26	=26	=26	=26	=26
8A\L	.	4a/	4f#\	.	8aa\L	.	2.ryy	.	.	.	.	2.ryy	2.ryy
8B\J	.	.	.	.	8bb\J	.	.	.	.	.	.	.	.
2G\	.	4a/	4e\	.	2gg\	.	.	.	.	.	.	.	.
.	.	4a/	4e\	.	.	.	.	.	.	.	.	.	.
!LO:LB:g=original	!	!	!	!	!	!	!	!	!	!	!	!	!
=27	=27	=27	=27	=27	=27	=27	=27	=27	=27	=27	=27	=27	=27
*	*	*2\right	*	*	*	*	*	*	*	*	*	*	*
8E/L	.	2.a/	2.e\	.	8ee\L	.	2.ryy	.	.	.	.	2.ryy	2.ryy
8D/	.	.	.	.	8dd\	.	.	.	.	.	.	.	.
8C#X/	.	.	.	.	8cc#X\	.	.	.	.	.	.	.	.
8D/	.	.	.	.	8dd\	.	.	.	.	.	.	.	.
8E/	.	.	.	.	8ee\	.	.	.	.	.	.	.	.
8G/J	.	.	.	.	8gg\J	.	.	.	.	.	.	.	.
=28	=28	=28	=28	=28	=28	=28	=28	=28	=28	=28	=28	=28	=28
4F#\	.	4a/	4f#\	.	4ff#\	.	2.ryy	.	.	.	.	2.ryy	2.ryy
2D\	.	4a/	4f#\	.	2dd\	.	.	.	.	.	.	.	.
.	.	4a/	4f#\	.	.	.	.	.	.	.	.	.	.
=29	=29	=29	=29	=29	=29	=29	=29	=29	=29	=29	=29	=29	=29
8F#\L	.	4a/	4f#\	.	8ff#L 8a 8d/	.	2.ryy	0.r	.	0.r	.	2.ryy	2.ryy
8G\J	.	.	.	.	8gg/J	.	.	.	.	.	.	.	.
4A\	.	4a/	4f#\	.	4aa\	.	.	.	.	.	.	.	.
4A\	.	4a/	4f#\	.	4aa\	.	.	.	.	.	.	.	.
=30	=30	=30	=30	=30	=30	=30	=30	=30	=30	=30	=30	=30	=30
8A\L	.	4a/	4f#\	.	8aa\L	.	2.ryy	.	.	.	.	2.ryy	2.ryy
8B\J	.	.	.	.	8bb\J	.	.	.	.	.	.	.	.
2G\	.	4a/	4e\	.	2gg\	.	.	.	.	.	.	.	.
.	.	4a/	4e\	.	.	.	.	.	.	.	.	.	.
=31	=31	=31	=31	=31	=31	=31	=31	=31	=31	=31	=31	=31	=31
8E/L	.	2.a/	2.e\	.	8ee\L	.	2.ryy	.	.	.	.	2.ryy	2.ryy
8D/	.	.	.	.	8dd\	.	.	.	.	.	.	.	.
8C#X/	.	.	.	.	8cc#X\	.	.	.	.	.	.	.	.
8D/	.	.	.	.	8dd\	.	.	.	.	.	.	.	.
8E/	.	.	.	.	8ee\	.	.	.	.	.	.	.	.
8G/J	.	.	.	.	8gg\J	.	.	.	.	.	.	.	.
=32	=32	=32	=32	=32	=32	=32	=32	=32	=32	=32	=32	=32	=32
4F#\	.	4a/	4f#\	.	4ff#\	.	2.ryy	.	.	.	.	2.ryy	2.ryy
2D/	.	4a/	4f#\	.	2dd\	.	.	.	.	.	.	.	.
*	*	*	*	*	*	*	*	*	*	*custos:b	*	*	*
!	!	!	!	!	!	!	!	!	!	!LO:TX:b:t=V&colon; Sub	!	!	!
.	.	4a/	4f#\	.	.	.	.	.	.	.	.	.	.
!	!	!	!	!	!	!	!	!	!	!LO:PB:g=original	!	!	!
=33	=33	=33	=33	=33	=33	=33	=33	=33	=33	=33	=33	=33	=33
*^	*	*	*	*	*^	*	*	*	*	*	*	*	*
!	!LO:N:vis=2	!	!LO:S:s=1:note:problem=note-level slur	!	!	!	!	!LO:DY:t=pia:rj	!	!	!	!	!	!	!
4G/	[2.GG\	.	(<2b/	2.G\	.	(2dd\	2.d\	p	2.ryy	(2b\	Ex	(2dd\	Ex	2.ryy	2.ryy
4r	.	.	.	.	.	.	.	.	.	.	.	.	.	.	.
4r	.	.	4g/)	.	.	4b\)	.	.	.	4g\)	.	4b\)	.	.	.
!	!	!	!	!	!	!	!	!	!	!LO:LB:g=original	!	!	!	!	!
=34	=34	=34	=34	=34	=34	=34	=34	=34	=34	=34	=34	=34	=34	=34	=34
!	!LO:N:vis=2	!	!LO:S:s=1:note:problem=note-level slur	!	!	!	!	!	!	!	!	!	!	!	!
4G/	2.GG\_	.	(<2b/	2.G\	.	(2dd\	2.d\	.	2.ryy	(2b\	ma-	(2dd\	Ma-	2.ryy	2.ryy
4r	.	.	.	.	.	.	.	.	.	.	.	.	.	.	.
4r	.	.	4g/)	.	.	4b/)	.	.	.	4g\)	.	4b\)	.	.	.
=35	=35	=35	=35	=35	=35	=35	=35	=35	=35	=35	=35	=35	=35	=35	=35
!	!LO:N:vis=2	!	!LO:S:s=1:note:problem=note-level slur	!	!	!LO:S:s=1:note:problem=note-level slur	!	!	!	!	!	!	!	!	!
4G/	2.GG\_	.	(<8g/L	2.G\	.	(<8b/L	2.d\	.	2.ryy	(8g\L	-ri-	(8b\L	-ri-	2.ryy	2.ryy
.	.	.	8a/	.	.	8ccn/	.	.	.	8a\	.	8cc\	.	.	.
4r	.	.	8g/	.	.	8b/	.	.	.	8g\	.	8b\	.	.	.
.	.	.	8a/	.	.	8cc/	.	.	.	8a\	.	8cc\	.	.	.
4r	.	.	8g/	.	.	8b/	.	.	.	8g\	.	8b\	.	.	.
.	.	.	8a/J)	.	.	8cc/J)	.	.	.	8a\J)	.	8cc\J)	.	.	.
!	!	!	!LO:PB:g=original	!	!	!LO:LB:g=original	!	!	!	!	!	!	!	!	!
=36	=36	=36	=36	=36	=36	=36	=36	=36	=36	=36	=36	=36	=36	=36	=36
!	!LO:N:vis=2	!	!LO:N:vis=2	!	!	!	!	!	!	!	!	!	!	!	!
4G/	2.GG\_	.	2.b/	2.G\	.	2.dd/	2.d\	.	2.ryy	2.b\	-a	2.dd\	-a	2.ryy	2.ryy
4r	.	.	.	.	.	.	.	.	.	.	.	.	.	.	.
4r	.	.	.	.	.	.	.	.	.	.	.	.	.	.	.
=37	=37	=37	=37	=37	=37	=37	=37	=37	=37	=37	=37	=37	=37	=37	=37
!	!LO:N:vis=2	!	!	!	!	!LO:S:s=1:note:problem=note-level slur	!	!	!	!	!	!	!	!	!
4G/	2.GG\_	.	8g/L	2.G\	.	(<8b/L	2.d\	.	2.ryy	(8g\L	Vir-	8b\L	Vir-	2.ryy	2.ryy
.	.	.	8a/	.	.	8cc/	.	.	.	8a\	.	8cc\	.	.	.
4r	.	.	8g/	.	.	8b/	.	.	.	8g\	.	8b\	.	.	.
.	.	.	8a/	.	.	8cc/	.	.	.	8a\	.	8cc\	.	.	.
4r	.	.	8g/	.	.	8b/	.	.	.	8g\	-gi-	8b\	-gi-	.	.
.	.	.	8a/J	.	.	8cc/J)	.	.	.	8a\J)	.	8cc\J	.	.	.
=38	=38	=38	=38	=38	=38	=38	=38	=38	=38	=38	=38	=38	=38	=38	=38
!	!LO:N:vis=2	!	!	!	!	!	!	!	!	!	!	!	!	!	!
4G/	2.GG\]	.	2.b/	2.G\	.	2.dd/	2.d\	.	2.ryy	2.b\	-ne	2.dd\	-ne	2.ryy	2.ryy
4r	.	.	.	.	.	.	.	.	.	.	.	.	.	.	.
4r	.	.	.	.	.	.	.	.	.	.	.	.	.	.	.
*v	*v	*	*	*	*	*v	*v	*	*	*	*	*	*	*	*
*	*	*v	*v	*	*	*	*	*	*	*	*	*	*
!LO:LB:g=original	!	!	!	!	!	!	!	!	!	!	!	!
=39	=39	=39	=39	=39	=39	=39	=39	=39	=39	=39	=39	=39
2.GG/	.	2.b 2.d/	.	(8dd\L	.	2.ryy	0.r	.	(8dd\L	Et	2.ryy	2.ryy
.	.	.	.	8ee\	.	.	.	.	8ee\J)	.	.	.
.	.	.	.	8ffn\	.	.	.	.	(8ffn\L	ho-	.	.
.	.	.	.	8ee\	.	.	.	.	8ee\J)	.	.	.
.	.	.	.	8dd\	.	.	.	.	(8dd\L	-mo	.	.
.	.	.	.	8cc\J)	.	.	.	.	8cc\J)	.	.	.
=40	=40	=40	=40	=40	=40	=40	=40	=40	=40	=40	=40	=40
2.GG/	.	2.b 2.d/	.	(8b/L	.	2.ryy	.	.	(8b\L	Et	2.ryy	2.ryy
.	.	.	.	8cc/	.	.	.	.	8cc\J)	.	.	.
.	.	.	.	8dd/	.	.	.	.	(8dd\L	ho-	.	.
.	.	.	.	8b/	.	.	.	.	8b\J)	.	.	.
.	.	.	.	8a/	.	.	.	.	(8a\L	-mo	.	.
.	.	.	.	8g/J)	.	.	.	.	8g\J)	.	.	.
!	!	!	!	!	!	!	!	!	!LO:LB:g=original	!	!	!
=41	=41	=41	=41	=41	=41	=41	=41	=41	=41	=41	=41	=41
2.D\	.	2.a 2.d/	.	(8f#/L	.	2.ryy	.	.	8f#\L	Fac-	2.ryy	2.ryy
.	.	.	.	8g/	.	.	.	.	8g\	.	.	.
.	.	.	.	8a/	.	.	.	.	8a\	.	.	.
.	.	.	.	8g/	.	.	.	.	8g\J	.	.	.
.	.	.	.	8a/	.	.	.	.	8a\	.	.	.
.	.	.	.	8cc/J)	.	.	.	.	8cc\	.	.	.
=42	=42	=42	=42	=42	=42	=42	=42	=42	=42	=42	=42	=42
2.GG/	.	4b 4d/	.	4b/	.	2.ryy	.	.	4b\	-ctus	2.ryy	2.ryy
.	.	2g 2B/	.	2g/	.	.	.	.	2g\	eſt	.	.
=43	=43	=43	=43	=43	=43	=43	=43	=43	=43	=43	=43	=43
2.GG/	.	2.b 2.d/	.	(8dd\L	.	2.ryy	0.r	.	(8dd\L	Et	2.ryy	2.ryy
.	.	.	.	8ee\	.	.	.	.	8ee\J)	.	.	.
.	.	.	.	8ffn\	.	.	.	.	(8ffn\L	ho-	.	.
.	.	.	.	8ee\	.	.	.	.	8ee\J)	.	.	.
.	.	.	.	8dd\	.	.	.	.	(8dd\L	-mo	.	.
.	.	.	.	8cc\J)	.	.	.	.	8cc\J)	.	.	.
=44	=44	=44	=44	=44	=44	=44	=44	=44	=44	=44	=44	=44
2.GG/	.	2.b 2.d/	.	8b\L	.	2.ryy	.	.	8b\L	Et	2.ryy	2.ryy
.	.	.	.	8cc\	.	.	.	.	8cc\J	.	.	.
.	.	.	.	8dd\	.	.	.	.	8dd\L	ho-	.	.
.	.	.	.	8b\	.	.	.	.	8b\J	.	.	.
.	.	.	.	8a\	.	.	.	.	8a\L	-mo	.	.
.	.	.	.	8g\J	.	.	.	.	8g\J	.	.	.
=45	=45	=45	=45	=45	=45	=45	=45	=45	=45	=45	=45	=45
2.D\	.	2.a 2.d/	.	(8f#/L	.	2.ryy	.	.	8f#\L	Fac-	2.ryy	2.ryy
.	.	.	.	8g/	.	.	.	.	8g\	.	.	.
.	.	.	.	8a/	.	.	.	.	8a\	.	.	.
.	.	.	.	8g/J)	.	.	.	.	8g\	.	.	.
!	!	!	!	!LO:LB:g=original	!	!	!	!	!	!	!	!
.	.	.	.	(8a/L	.	.	.	.	8a\	.	.	.
.	.	.	.	8cc/J)	.	.	.	.	8cc\J	.	.	.
=46	=46	=46	=46	=46	=46	=46	=46	=46	=46	=46	=46	=46
2.GG/	.	4b 4d/	.	4b/	.	2.ryy	.	.	4b\	-tus	2.ryy	2.ryy
.	.	2g 2B/	.	2g/	.	.	.	.	2g\	eſt	.	.
=47	=47	=47	=47	=47	=47	=47	=47	=47	=47	=47	=47	=47
8GG/	.	8r	.	8r	.	2.ryy	4b\	Cru-	4dd\	Cru-	2.ryy	2.ryy
!	!	!	!LO:DY:t=pia.	!	!LO:DY:t=piano.	!	!	!	!	!	!	!
8r	.	8b/	p	8dd\	p	.	.	.	.	.	.	.
8GG/	.	8r	.	8r	.	.	4g\	.	4b\	.	.	.
8r	.	8g/	.	8b\	.	.	.	.	.	.	.	.
8GG/	.	8r	.	8r	.	.	4B/	-ci-	4g\	-ci-	.	.
8r	.	8B/	.	8g/	.	.	.	.	.	.	.	.
!	!	!LO:LB:g=original	!	!	!	!	!	!	!LO:LB:g=original	!	!	!
=48	=48	=48	=48	=48	=48	=48	=48	=48	=48	=48	=48	=48
8C/	.	8r	.	8r	.	2.ryy	4cc\	-fi-	4ee\	-fi-	2.ryy	2.ryy
8r	.	8cc\	.	8ee\	.	.	.	.	.	.	.	.
8C/	.	8r	.	8r	.	.	4a\	.	4cc\	.	.	.
8r	.	8a/	.	8cc\	.	.	.	.	.	.	.	.
8C/	.	8r	.	8r	.	.	4f#/	-xus	4a\	-xus	.	.
8r	.	8a/	.	8cc\	.	.	.	.	.	.	.	.
=49	=49	=49	=49	=49	=49	=49	=49	=49	=49	=49	=49	=49
8D/	.	8r	.	8r	.	2.ryy	8a\	e-	8cc\	E-	2.ryy	2.ryy
8r	.	8a/	.	8cc\	.	.	8a\	-ti-	8cc\	-ti-	.	.
8D/	.	8r	.	8r	.	.	4f#/	-am	4a\	-am	.	.
8r	.	8f#/	.	8a/	.	.	.	.	.	.	.	.
8D/	.	8r	.	8r	.	.	4d/	pro	4f#/	pro	.	.
8r	.	8d/	.	8f#/	.	.	.	.	.	.	.	.
!	!	!	!	!	!	!	!LO:LB:g=original	!	!	!	!	!
=50	=50	=50	=50	=50	=50	=50	=50	=50	=50	=50	=50	=50
8G\	.	8r	.	8r	.	2.ryy	4b\	no-	4dd\	no-	2.ryy	2.ryy
8r	.	8b\	.	8dd\	.	.	.	.	.	.	.	.
8GG/	.	8r	.	8r	.	.	4g\	.	4b\	.	.	.
8r	.	8g/	.	8b/	.	.	.	.	.	.	.	.
8GG/	.	8r	.	8r	.	.	4B/	-bis	4g/	-bis	.	.
8r	.	8g/	.	8b/	.	.	.	.	.	.	.	.
=51	=51	=51	=51	=51	=51	=51	=51	=51	=51	=51	=51	=51
*	*	*tremolo	*	*tremolo	*	*	*	*	*	*	*	*
4D/	.	16f#/LL	.	16a/LL	.	2.ryy	2.f#/	Sub	2.a\	Sub	2.ryy	2.ryy
.	.	16f#/	.	16a/	.	.	.	.	.	.	.	.
.	.	16f#/	.	16a/	.	.	.	.	.	.	.	.
.	.	16f#/	.	16a/	.	.	.	.	.	.	.	.
4r	.	16f#/	.	16a/	.	.	.	.	.	.	.	.
.	.	16f#/	.	16a/	.	.	.	.	.	.	.	.
.	.	16f#/	.	16a/	.	.	.	.	.	.	.	.
.	.	16f#/	.	16a/	.	.	.	.	.	.	.	.
4D\	.	16f#/	.	16a/	.	.	.	.	.	.	.	.
.	.	16f#/	.	16a/	.	.	.	.	.	.	.	.
.	.	16f#/	.	16a/	.	.	.	.	.	.	.	.
.	.	16f#/JJ	.	16a/JJ	.	.	.	.	.	.	.	.
!LO:PB:g=original	!	!	!	!	!	!	!	!	!	!	!	!
=52	=52	=52	=52	=52	=52	=52	=52	=52	=52	=52	=52	=52
4G\	.	16g/LL	.	16b\LL	.	2.ryy	4.g\	pon-	4.b\	pon-	2.ryy	2.ryy
.	.	16g/	.	16b\	.	.	.	.	.	.	.	.
.	.	16g/	.	16b\	.	.	.	.	.	.	.	.
.	.	16g/	.	16b\	.	.	.	.	.	.	.	.
4r	.	16g/	.	16b\	.	.	.	.	.	.	.	.
.	.	16g/	.	16b\	.	.	.	.	.	.	.	.
.	.	16g/	.	16b\	.	.	8g\	-ti-	8b\	-ti-	.	.
.	.	16g/	.	16b\	.	.	.	.	.	.	.	.
4GG/	.	16g/	.	16b\	.	.	4g\	-o	4b\	-o	.	.
.	.	16g/	.	16b\	.	.	.	.	.	.	.	.
.	.	16g/	.	16b\	.	.	.	.	.	.	.	.
.	.	16g/JJ	.	16b\JJ	.	.	.	.	.	.	.	.
=53	=53	=53	=53	=53	=53	=53	=53	=53	=53	=53	=53	=53
4D/	.	16a/LL	.	16cc\LL	.	2.ryy	2a\	Pi-	2cc\	Pi-	2.ryy	2.ryy
.	.	16a/	.	16cc\	.	.	.	.	.	.	.	.
.	.	16a/	.	16cc\	.	.	.	.	.	.	.	.
.	.	16a/	.	16cc\	.	.	.	.	.	.	.	.
4r	.	16a/	.	16cc\	.	.	.	.	.	.	.	.
.	.	16a/	.	16cc\	.	.	.	.	.	.	.	.
.	.	16a/	.	16cc\	.	.	.	.	.	.	.	.
.	.	16a/	.	16cc\	.	.	.	.	.	.	.	.
4D/	.	16a/	.	16cc\	.	.	4a\	-la-	4cc\	-la-	.	.
.	.	16a/	.	16cc\	.	.	.	.	.	.	.	.
.	.	16a/	.	16cc\	.	.	.	.	.	.	.	.
.	.	16a/JJ	.	16cc\JJ	.	.	.	.	.	.	.	.
!	!	!	!	!LO:LB:g=original	!	!	!	!	!	!	!	!
=54	=54	=54	=54	=54	=54	=54	=54	=54	=54	=54	=54	=54
4G\	.	16g/LL	.	16b\LL	.	2.ryy	2g\	-to	2b\	-to	2.ryy	2.ryy
.	.	16g/	.	16b\	.	.	.	.	.	.	.	.
.	.	16g/	.	16b\	.	.	.	.	.	.	.	.
.	.	16g/	.	16b\	.	.	.	.	.	.	.	.
4r	.	16g/	.	16b\	.	.	.	.	.	.	.	.
.	.	16g/	.	16b\	.	.	.	.	.	.	.	.
.	.	16g/	.	16b\	.	.	.	.	.	.	.	.
.	.	16g/	.	16b\	.	.	.	.	.	.	.	.
4GG/	.	16g/	.	16b\	.	.	4r	.	4r	.	.	.
.	.	16g/	.	16b\	.	.	.	.	.	.	.	.
.	.	16g/	.	16b\	.	.	.	.	.	.	.	.
.	.	16g/JJ	.	16b\JJ	.	.	.	.	.	.	.	.
=55	=55	=55	=55	=55	=55	=55	=55	=55	=55	=55	=55	=55
4D/	.	16f#/LL	.	16a/LL	.	2.ryy	2.f#/	Sub	2.a\	Sub	2.ryy	2.ryy
.	.	16f#/	.	16a/	.	.	.	.	.	.	.	.
.	.	16f#/	.	16a/	.	.	.	.	.	.	.	.
.	.	16f#/	.	16a/	.	.	.	.	.	.	.	.
4r	.	16f#/	.	16a/	.	.	.	.	.	.	.	.
.	.	16f#/	.	16a/	.	.	.	.	.	.	.	.
.	.	16f#/	.	16a/	.	.	.	.	.	.	.	.
.	.	16f#/	.	16a/	.	.	.	.	.	.	.	.
4D/	.	16f#/	.	16a/	.	.	.	.	.	.	.	.
.	.	16f#/	.	16a/	.	.	.	.	.	.	.	.
.	.	16f#/	.	16a/	.	.	.	.	.	.	.	.
.	.	16f#/JJ	.	16a/JJ	.	.	.	.	.	.	.	.
=56	=56	=56	=56	=56	=56	=56	=56	=56	=56	=56	=56	=56
4G\	.	16g/LL	.	16b\LL	.	2.ryy	4.g\	pon-	4.b\	pon-	2.ryy	2.ryy
.	.	16g/	.	16b\	.	.	.	.	.	.	.	.
.	.	16g/	.	16b\	.	.	.	.	.	.	.	.
.	.	16g/	.	16b\	.	.	.	.	.	.	.	.
4r	.	16g/	.	16b\	.	.	.	.	.	.	.	.
.	.	16g/	.	16b\	.	.	.	.	.	.	.	.
.	.	16g/	.	16b\	.	.	8g\	-ti-	8b\	-ti-	.	.
.	.	16g/	.	16b\	.	.	.	.	.	.	.	.
4GG/	.	16g/	.	16b\	.	.	4g\	-o	4b\	-o	.	.
.	.	16g/	.	16b\	.	.	.	.	.	.	.	.
.	.	16g/	.	16b\	.	.	.	.	.	.	.	.
.	.	16g/JJ	.	16b\JJ	.	.	.	.	.	.	.	.
=57	=57	=57	=57	=57	=57	=57	=57	=57	=57	=57	=57	=57
4D/	.	16a/LL	.	16cc\LL	.	2.ryy	2a\	Pi-	2cc\	Pi-	2.ryy	2.ryy
.	.	16a/	.	16cc\	.	.	.	.	.	.	.	.
.	.	16a/	.	16cc\	.	.	.	.	.	.	.	.
.	.	16a/	.	16cc\	.	.	.	.	.	.	.	.
4r	.	16a/	.	16cc\	.	.	.	.	.	.	.	.
.	.	16a/	.	16cc\	.	.	.	.	.	.	.	.
.	.	16a/	.	16cc\	.	.	.	.	.	.	.	.
.	.	16a/	.	16cc\	.	.	.	.	.	.	.	.
4D/	.	16a/	.	16cc\	.	.	4a\	-la-	4cc\	-la-	.	.
.	.	16a/	.	16cc\	.	.	.	.	.	.	.	.
.	.	16a/	.	16cc\	.	.	.	.	.	.	.	.
.	.	16a/JJ	.	16cc\JJ	.	.	.	.	.	.	.	.
!	!	!LO:LB:g=original	!	!	!	!	!	!	!LO:LB:g=original	!	!	!
=58	=58	=58	=58	=58	=58	=58	=58	=58	=58	=58	=58	=58
4G\	.	16g/LL	.	16b\LL	.	2.ryy	2g\	-to	2b\	-to	2.ryy	2.ryy
.	.	16g/	.	16b\	.	.	.	.	.	.	.	.
.	.	16g/	.	16b\	.	.	.	.	.	.	.	.
.	.	16g/	.	16b\	.	.	.	.	.	.	.	.
4r	.	16g/	.	16b\	.	.	.	.	.	.	.	.
.	.	16g/	.	16b\	.	.	.	.	.	.	.	.
.	.	16g/	.	16b\	.	.	.	.	.	.	.	.
.	.	16g/	.	16b\	.	.	.	.	.	.	.	.
4GG/	.	16g/	.	16b\	.	.	4r	.	4r	.	.	.
.	.	16g/	.	16b\	.	.	.	.	.	.	.	.
.	.	16g/	.	16b\	.	.	.	.	.	.	.	.
.	.	16g/JJ	.	16b\JJ	.	.	.	.	.	.	.	.
*	*	*Xtremolo	*	*Xtremolo	*	*	*	*	*	*	*	*
=59	=59	=59	=59	=59	=59	=59	=59	=59	=59	=59	=59	=59
4C/	.	8r	.	8r	.	2.ryy	4.cc\	Pas-	4.ee\	Pas-	2.ryy	2.ryy
.	.	8cc\	.	8ee\	.	.	.	.	.	.	.	.
4r	.	8r	.	8r	.	.	.	.	.	.	.	.
.	.	8cc\	.	8ee\	.	.	8ee\	.	8gg\	.	.	.
4r	.	8r	.	8r	.	.	4b\	-ſus	4dd\	-ſus	.	.
.	.	8b\	.	8dd\	.	.	.	.	.	.	.	.
!	!	!	!	!	!	!	!LO:LB:g=original	!	!	!	!	!
=60	=60	=60	=60	=60	=60	=60	=60	=60	=60	=60	=60	=60
8G\	.	8r	.	8r	.	2.ryy	4b\	Pas-	4dd\	Pas-	2.ryy	2.ryy
8r	.	8b/	.	8dd\	.	.	.	.	.	.	.	.
8D/	.	8r	.	8r	.	.	4a\	.	4ccT\	.	.	.
8r	.	8a/	.	8cc\	.	.	.	.	.	.	.	.
8GG/	.	8r	.	8r	.	.	4g\	-sus	4b\	-ſus	.	.
8r	.	8g/	.	8b\	.	.	.	.	.	.	.	.
=61	=61	=61	=61	=61	=61	=61	=61	=61	=61	=61	=61	=61
4C/	.	8r	.	8r	.	2.ryy	4.cc\	Pas-	4.ee\	Pas-	2.ryy	2.ryy
.	.	8cc\	.	8ee\	.	.	.	.	.	.	.	.
4r	.	8r	.	8r	.	.	.	.	.	.	.	.
.	.	8cc\	.	8ee\	.	.	8ee\	.	8gg\	.	.	.
4r	.	8r	.	8r	.	.	4b\	-ſus	4dd\	-ſus	.	.
.	.	8b\	.	8dd\	.	.	.	.	.	.	.	.
=62	=62	=62	=62	=62	=62	=62	=62	=62	=62	=62	=62	=62
8G\	.	8r	.	8r	.	2.ryy	4b\	Pas-	4dd\	Pas-	2.ryy	2.ryy
8r	.	8b\	.	8dd\	.	.	.	.	.	.	.	.
8D/	.	8r	.	8r	.	.	4a\	.	4ccT\	.	.	.
8r	.	8a/	.	8cc\	.	.	.	.	.	.	.	.
8GG/	.	8r	.	8r	.	.	4g\	-sus	4b\	-ſus	.	.
8r	.	8g/	.	8b\	.	.	.	.	.	.	.	.
=63	=63	=63	=63	=63	=63	=63	=63	=63	=63	=63	=63	=63
*	*	*Xtuplet	*	*Xtuplet	*	*	*Xtuplet	*	*Xtuplet	*	*	*
!LO:TX:t=P:problem=mixed beam	!	!	!	!	!	!	!	!	!LO:TX:t=P:problem=ukryta "3"	!	!	!
8C/L	.	12cc\L	.	12ee\L	.	2.ryy	12cc\L	Et	12ee\L	Et	2.ryy	2.ryy
.	.	12b\	.	12dd\	.	.	12b\	.	12dd\J	.	.	.
8c\J	.	.	.	.	.	.	.	.	.	.	.	.
.	.	12a\J	.	12cc\J	.	.	12a\J	Se-	12cc\	Se-	.	.
*	*	*tremolo	*	*tremolo	*	*	*	*	*	*	*	*
!LO:TX:t=P:problem=mixed beam	!	!	!	!	!	!	!	!	!	!	!	!
8d\L	.	16g/LL	.	16b/LL	.	.	4g/	-pul-	4b\	-pul-	.	.
.	.	16g/	.	16b/	.	.	.	.	.	.	.	.
8d\	.	16g/	.	16b/	.	.	.	.	.	.	.	.
.	.	16g/JJ	.	16b/JJ	.	.	.	.	.	.	.	.
8D/	.	16f#/LL	.	16a/LL	.	.	4f#t/	-tus	4aT\	-tus	.	.
.	.	16f#/	.	16a/	.	.	.	.	.	.	.	.
8D/J	.	16f#/	.	16a/	.	.	.	.	.	.	.	.
.	.	16f#/JJ	.	16a/JJ	.	.	.	.	.	.	.	.
*	*	*Xtremolo	*	*Xtremolo	*	*	*	*	*	*	*	*
!LO:LB:g=original	!	!	!	!	!	!	!	!	!	!	!	!
=64	=64	=64	=64	=64	=64	=64	=64	=64	=64	=64	=64	=64
2G\	.	2g 2B/	.	8g/L	.	2.ryy	4g/	eſt	4g/	Eſt	2.ryy	2.ryy
.	.	.	.	8b/J	.	.	.	.	.	.	.	.
.	.	.	.	8dd/L	.	.	4r	.	4r	.	.	.
.	.	.	.	16b/L	.	.	.	.	.	.	.	.
.	.	.	.	16g/JJ	.	.	.	.	.	.	.	.
4D/	.	4f# 4A/	.	8cc/L	.	.	4r	.	4r	.	.	.
.	.	.	.	16a/L	.	.	.	.	.	.	.	.
.	.	.	.	16f#/JJ	.	.	.	.	.	.	.	.
!	!	!LO:LB:g=original	!	!	!	!	!	!	!	!	!	!
=65	=65	=65	=65	=65	=65	=65	=65	=65	=65	=65	=65	=65
!	!	!	!	!	!	!	!LO:TX:a:t=3.	!	!LO:TX:a:t=3.	!	!	!
2G\	.	2g 2B/	.	8g/L	.	2.ryy	1.r	.	1.r	.	2.ryy	2.ryy
.	.	.	.	8b/J	.	.	.	.	.	.	.	.
.	.	.	.	8dd/L	.	.	.	.	.	.	.	.
.	.	.	.	16b/L	.	.	.	.	.	.	.	.
.	.	.	.	16g/JJ	.	.	.	.	.	.	.	.
4D/	.	4f# 4A/	.	8cc/L	.	.	.	.	.	.	.	.
.	.	.	.	16a/L	.	.	.	.	.	.	.	.
.	.	.	.	16f#/JJ	.	.	.	.	.	.	.	.
=66	=66	=66	=66	=66	=66	=66	=66	=66	=66	=66	=66	=66
*tremolo	*	*tremolo	*	*tremolo	*	*	*	*	*	*	*	*
8G\L	.	8g 8B/L	.	8g 8B/L	.	2.ryy	.	.	.	.	2.ryy	2.ryy
8G\	.	8g 8B/	.	8g 8B/	.	.	.	.	.	.	.	.
8G\	.	8g 8B/	.	8g 8B/	.	.	.	.	.	.	.	.
8G\	.	8g 8B/	.	8g 8B/	.	.	.	.	.	.	.	.
8G\	.	8g 8B/	.	8g 8B/	.	.	.	.	.	.	.	.
8G\J	.	8g 8B/J	.	8g 8B/J	.	.	.	.	.	.	.	.
*Xtremolo	*	*Xtremolo	*	*Xtremolo	*	*	*	*	*	*	*	*
=67	=67	=67	=67	=67	=67	=67	=67	=67	=67	=67	=67	=67
4G\	.	4g 4B/	.	4g 4B/	.	2.ryy	2.r	.	2.r	.	2.ryy	2.ryy
4r	.	4r	.	4r	.	.	.	.	.	.	.	.
4r	.	4r	.	4r	.	.	.	.	.	.	.	.
==	==	==	==	==	==	==	==	==	==	==	==	==
*-	*-	*-	*-	*-	*-	*-	*-	*-	*-	*-	*-	*-
!!!system-decoration: [(s1,s2)][(g1)][(s6,s7)][(s8)]
!!!RDF**kern: > = above
!!!RDF**kern: < = below
!!!ENC: Marcin Jachim
!!!END: 2020-08-20
!!!ENC: Andrzej Kubiczek
!!!END: 2021-11-06
!!!YEC: Copyright 2022 Narodowy Instytut Fryderyka Chopina (https://polishscores.org)
!!!YEM: License CC-BY-4.0 (https://creativecommons.org/licenses/by/4.0)
